X:594
T: "Abendlied"
N: Z1274
O: Europa, Mitteleuropa, Deutschland, Niederrhein
R: Natur und Welt
M: 3/4
L: 1/8
K: A
EEE | A2c2BA | B2z
EEE | A2c2BA | B2z
cAB | cedcBA | BdcBAG | A2z
cAB | cedcBA | BdcBAG | A2z

